flaticon/fitness/measuring-tape.svg

<svg xmlns="http://www.w3.org/2000/svg" width="32" height="32" viewBox="0 0 24 24">
    <path d="M 12.203125 3.660156 C 5.574219 3.660156 0.40625 6.347656 0.40625 9.761719 L 0.40625 14.238281 C 0.40625 14.644531 0.472656 15.082031 0.636719 15.492188 C 0.246094 15.832031 0 16.339844 0 16.921875 L 0 18.507812 C 0 19.527344 0.8125 20.339844 1.832031 20.339844 L 12.203125 20.339844 C 12.441406 20.339844 12.679688 20.335938 12.914062 20.328125 C 12.945312 20.335938 12.980469 20.339844 13.015625 20.339844 C 13.054688 20.339844 13.09375 20.332031 13.132812 20.320312 C 13.773438 20.296875 14.394531 20.246094 15 20.171875 C 15.015625 20.175781 15.03125 20.175781 15.050781 20.175781 C 15.09375 20.175781 15.132812 20.167969 15.175781 20.152344 C 15.84375 20.066406 16.484375 19.949219 17.097656 19.808594 C 17.140625 19.808594 17.183594 19.796875 17.222656 19.78125 C 21.265625 18.820312 24 16.722656 24 14.238281 L 24 9.761719 C 24 6.347656 18.832031 3.660156 12.203125 3.660156 Z M 12.203125 4.472656 C 18.140625 4.472656 23.1875 6.914062 23.1875 9.761719 C 23.1875 12.609375 18.140625 15.050781 12.203125 15.050781 C 6.265625 15.050781 1.21875 12.609375 1.21875 9.761719 C 1.21875 6.914062 6.265625 4.472656 12.203125 4.472656 Z M 1.34375 15.050781 C 1.261719 14.765625 1.21875 14.523438 1.21875 14.238281 L 1.21875 12.039062 C 1.316406 12.164062 1.421875 12.285156 1.53125 12.40625 C 2.492188 13.464844 4.019531 14.347656 5.929688 14.957031 C 6.027344 14.988281 6.125 15.019531 6.222656 15.050781 Z M 4.472656 19.527344 L 1.832031 19.527344 C 1.261719 19.527344 0.8125 19.078125 0.8125 18.46875 L 0.8125 16.882812 C 0.8125 16.3125 1.261719 15.863281 1.832031 15.863281 L 4.472656 15.863281 Z M 23.1875 14.238281 C 23.1875 14.539062 23.128906 14.839844 23.019531 15.128906 C 22.949219 15.078125 22.863281 15.050781 22.78125 15.050781 C 22.535156 15.050781 22.371094 15.214844 22.371094 15.457031 L 22.371094 16.1875 C 22.144531 16.453125 21.871094 16.707031 21.558594 16.953125 L 21.558594 16.679688 C 21.558594 16.433594 21.398438 16.269531 21.152344 16.269531 C 20.910156 16.269531 20.746094 16.433594 20.746094 16.679688 L 20.746094 17.507812 C 20.375 17.730469 19.964844 17.9375 19.527344 18.132812 L 19.527344 17.492188 C 19.527344 17.246094 19.363281 17.085938 19.117188 17.085938 C 18.875 17.085938 18.710938 17.246094 18.710938 17.492188 L 18.710938 18.457031 C 18.324219 18.597656 17.914062 18.726562 17.492188 18.84375 L 17.492188 18.304688 C 17.492188 18.0625 17.328125 17.898438 17.085938 17.898438 C 16.839844 17.898438 16.679688 18.0625 16.679688 18.304688 L 16.679688 19.042969 C 16.28125 19.132812 15.875 19.210938 15.457031 19.277344 L 15.457031 18.710938 C 15.457031 18.46875 15.296875 18.304688 15.050781 18.304688 C 14.808594 18.304688 14.644531 18.46875 14.644531 18.710938 L 14.644531 19.386719 C 14.246094 19.433594 13.835938 19.46875 13.421875 19.492188 L 13.421875 18.710938 C 13.421875 18.46875 13.261719 18.304688 13.015625 18.304688 C 12.773438 18.304688 12.609375 18.46875 12.609375 18.710938 L 12.609375 19.519531 C 12.476562 19.523438 12.339844 19.527344 12.203125 19.527344 L 11.390625 19.527344 L 11.390625 18.710938 C 11.390625 18.46875 11.226562 18.304688 10.984375 18.304688 C 10.738281 18.304688 10.578125 18.46875 10.578125 18.710938 L 10.578125 19.527344 L 9.355469 19.527344 L 9.355469 18.710938 C 9.355469 18.46875 9.195312 18.304688 8.949219 18.304688 C 8.707031 18.304688 8.542969 18.46875 8.542969 18.710938 L 8.542969 19.527344 L 7.320312 19.527344 L 7.320312 18.710938 C 7.320312 18.46875 7.160156 18.304688 6.914062 18.304688 C 6.671875 18.304688 6.507812 18.46875 6.507812 18.710938 L 6.507812 19.527344 L 5.289062 19.527344 L 5.289062 15.863281 L 12.203125 15.863281 C 12.296875 15.863281 12.386719 15.863281 12.480469 15.863281 C 12.511719 15.863281 12.546875 15.863281 12.582031 15.859375 C 12.636719 15.859375 12.691406 15.859375 12.746094 15.859375 C 12.789062 15.855469 12.835938 15.855469 12.878906 15.855469 C 12.914062 15.855469 12.945312 15.851562 12.976562 15.851562 C 17.148438 15.71875 20.65625 14.515625 22.53125 12.753906 C 22.539062 12.75 22.542969 12.746094 22.550781 12.738281 C 22.570312 12.71875 22.59375 12.699219 22.613281 12.675781 C 22.828125 12.472656 23.019531 12.257812 23.1875 12.039062 Z M 23.1875 14.238281"/>
    <path d="M 12.203125 13.421875 C 16.066406 13.421875 19.117188 11.796875 19.117188 9.761719 C 19.117188 7.730469 16.066406 6.101562 12.203125 6.101562 C 8.339844 6.101562 5.289062 7.730469 5.289062 9.761719 C 5.289062 11.796875 8.339844 13.421875 12.203125 13.421875 Z M 12.203125 6.914062 C 15.5 6.914062 18.304688 8.21875 18.304688 9.761719 C 18.304688 11.308594 15.5 12.609375 12.203125 12.609375 C 8.910156 12.609375 6.101562 11.308594 6.101562 9.761719 C 6.101562 8.21875 8.910156 6.914062 12.203125 6.914062 Z M 12.203125 6.914062"/>
    <path d="M12.203125 11.796875C14.277344 11.796875 15.863281 10.941406 15.863281 9.761719 15.863281 8.582031 14.277344 7.730469 12.203125 7.730469 10.128906 7.730469 8.542969 8.582031 8.542969 9.761719 8.542969 10.941406 10.128906 11.796875 12.203125 11.796875zM12.203125 8.542969C13.832031 8.542969 15.050781 9.191406 15.050781 9.761719 15.050781 10.332031 13.832031 10.984375 12.203125 10.984375 10.578125 10.984375 9.355469 10.332031 9.355469 9.761719 9.355469 9.191406 10.578125 8.542969 12.203125 8.542969zM1.21875 17.695312C1.21875 18.46875 1.871094 19.117188 2.644531 19.117188 3.417969 19.117188 4.066406 18.46875 4.066406 17.695312 4.066406 16.921875 3.417969 16.269531 2.644531 16.269531 1.871094 16.269531 1.21875 16.921875 1.21875 17.695312zM2.644531 17.085938C2.96875 17.085938 3.253906 17.371094 3.253906 17.695312 3.253906 18.019531 2.96875 18.304688 2.644531 18.304688 2.320312 18.304688 2.035156 18.019531 2.035156 17.695312 2.035156 17.371094 2.320312 17.085938 2.644531 17.085938zM2.644531 17.085938"/>
</svg>

<svg xmlns="http://www.w3.org/2000/svg" width="32" height="32" viewBox="0 0 24 24">
    <path d="M12.203 3.66C5.574 3.66.406 6.348.406 9.762v4.476c0 .407.067.844.23 1.254-.39.34-.636.848-.636 1.43v1.586c0 1.02.813 1.832 1.832 1.832h10.371c.238 0 .477-.004.711-.012a.41.41 0 0 0 .219-.008c.64-.023 1.262-.074 1.867-.148.016.004.031.004.05.004a.354.354 0 0 0 .126-.024 20.028 20.028 0 0 0 1.922-.343.342.342 0 0 0 .125-.028c4.043-.96 6.777-3.058 6.777-5.543V9.762c0-3.414-5.168-6.102-11.797-6.102zm0 .813c5.938 0 10.985 2.441 10.985 5.289 0 2.847-5.047 5.289-10.985 5.289-5.937 0-10.984-2.442-10.984-5.29 0-2.847 5.047-5.288 10.984-5.288zM1.343 15.05a2.793 2.793 0 0 1-.124-.813V12.04c.097.125.203.246.312.367.961 1.059 2.489 1.942 4.399 2.551l.293.094zm3.13 4.476H1.832c-.57 0-1.02-.449-1.02-1.058v-1.586c0-.57.45-1.02 1.02-1.02h2.64zm18.715-5.289c0 .301-.06.602-.168.89a.413.413 0 0 0-.239-.077c-.246 0-.41.164-.41.406v.73c-.226.266-.5.52-.812.766v-.273c0-.246-.16-.41-.407-.41-.242 0-.406.164-.406.41v.828c-.371.222-.781.43-1.219.625v-.64c0-.247-.164-.407-.41-.407-.242 0-.406.16-.406.406v.965c-.387.14-.797.27-1.219.387v-.54a.385.385 0 0 0-.406-.406c-.246 0-.406.165-.406.407v.738c-.399.09-.805.168-1.223.234v-.566c0-.242-.16-.406-.406-.406a.385.385 0 0 0-.406.406v.676c-.399.047-.81.082-1.223.105v-.781c0-.242-.16-.406-.406-.406a.385.385 0 0 0-.407.406v.809c-.132.003-.27.007-.406.007h-.812v-.816a.385.385 0 0 0-.407-.406c-.246 0-.406.164-.406.406v.816H9.355v-.816c0-.242-.16-.406-.406-.406a.385.385 0 0 0-.406.406v.816H7.32v-.816c0-.242-.16-.406-.406-.406a.385.385 0 0 0-.406.406v.816H5.289v-3.664h7.191c.032 0 .067 0 .102-.004h.164c.043-.004.09-.004.133-.004.035 0 .066-.003.098-.003 4.171-.133 7.68-1.336 9.554-3.098a.069.069 0 0 0 .02-.016c.02-.02.043-.039.062-.062a5.42 5.42 0 0 0 .575-.637zm0 0"/>
    <path d="M12.203 13.422c3.863 0 6.914-1.625 6.914-3.66 0-2.032-3.05-3.66-6.914-3.66-3.863 0-6.914 1.628-6.914 3.66 0 2.035 3.05 3.66 6.914 3.66zm0-6.508c3.297 0 6.102 1.305 6.102 2.848 0 1.547-2.805 2.847-6.102 2.847-3.293 0-6.101-1.3-6.101-2.847 0-1.543 2.808-2.848 6.101-2.848zm0 0"/>
    <path d="M12.203 11.797c2.074 0 3.66-.856 3.66-2.035 0-1.18-1.586-2.032-3.66-2.032s-3.66.852-3.66 2.032c0 1.18 1.586 2.035 3.66 2.035zm0-3.254c1.629 0 2.848.648 2.848 1.219 0 .57-1.219 1.222-2.848 1.222-1.625 0-2.848-.652-2.848-1.222s1.223-1.219 2.848-1.219zm0 0M1.219 17.695a1.44 1.44 0 0 0 1.426 1.422c.773 0 1.421-.648 1.421-1.422a1.44 1.44 0 0 0-1.421-1.425c-.774 0-1.426.652-1.426 1.425zm1.426-.61c.324 0 .609.286.609.61 0 .325-.285.61-.61.61a.626.626 0 0 1-.609-.61c0-.324.285-.61.61-.61zm0 0"/>
</svg>
